!! 00000] TT[00
!! NN
!!!OTL: Dui hua
!!!ARE: Asia, China,ÿAnhui, Woyang
!! Ethnic Group: Han
!! III, 567
!!!SCT: C0348
!!!YEM: Copyright 1995, estate of Helmut Schaffrath.
**kern
*ICvox
*Ivox
!! Mixed meters:  3/4; 2/4
*M2/4
*k[f#c#g#]
*A:
{8ee
16cc#
16b
8a
4b
8b
=1
8cc#
16cc#
16b
16a
16b
4f#
8r}
=2
{8cc#
16cc#
16b
8a
4b
8b
=3
8cc#
16cc#
16b
16a
16b
8f#}
=4
{16cc#
16ee
16cc#
16b
8a
8b
=5
8cc#
16cc#
16b
16a
16b
8f#}
=6
*M3/4
{8r
4cc#
8b
8a
8b
=7
*M2/4
8cc#
16cc#
16b
16a
16cc#
8b}
=8
{8a
8b
8a
8f#
=9
8.b
16b
8b
8b}
=10
{16f#
16a
16f#
16a
8b
[8a
=11
8a]
4a
16f#
16e
=12
16f#
16a
4.e}
=13
*M3/4
{8r
4cc#
8b
8a
8b
=14
*M2/4
8cc#
16cc#
16b
16a
16cc#
8b
=15
8cc#
16cc#
16b
16a
16b
8f#}
=16
{16f#
16a
16f#
16a
8b
8a
=17
16f#
16a
16f#
16a
8b
8a
=18
8b
8b
8b
8b
=19
8b
8b
4b}
=20
{16b
16r
16b
16r
16a
16r
16b
16r
=21
16b
16a
16b
16b
8f#
[8a
=22
8a]
4b
8a
=23
8f#
8a
8e
8f#
=24
2e}
=25
{8ee
16cc#
16b
8a
8b
=26
8cc#
16cc#
16b
8a
8b}
=27
{8ee
16cc#
16b
8a
8b
=28
8cc#
16cc#
16b
8a
8b}
=29
{16a
8a
16f#
16e
16f#
8a
=30
16a
8a
16f#
16e
16f#
8e}
=31
{8cc#
16cc#
16b
16a
16cc#
8b
=32
8cc#
16cc#
16b
16a
16cc#
8b}
=33
*M3/4
{8r
4b
16b
16a
16b
16a
8b
=34
*M2/4
16f#
16a
16f#
16a
16b
16a
8b
=35
2a
=36
2b}
=37
{16f#
16r
16a
16r
16b
16r
16a
16r
=38
16f#
16r
16a
16r
16ee
16r
16a
16r
=39
16ee
16r
16ee
16r
16a
16r
16a
16r}
=40
{8cc#
8f#
8a
8f#
=41
8a
8b
8a
8f#
=42
16b
16r
16b
16r
16b
16r
16b
16r
=43
16b
16r
16b
16r
8b
8r}
=44
{8b
8b
16a
16r
16b
16r
=45
16b
16a
16b
16b
8f#
8a}
=46
{8r
8a
8c#
8e
=47
4f#
4e
=48
[2a
=49
8a]
16f#
16e
8a
[8e
=50
2e_
=51
4.e]
8r}
==
!!!AGN: Xiaodiao
!!!ONB: ESAC (Essen Associative Code) Database: CHINA
!!!AMT: irregular
!!!AIN: vox
!!!EED: Helmut Schaffrath
!!!EEV: 1.0
*-
!!!ONB: Tied note syntax fixed by Craig Sapp, 2004/05/03/
